X: 12
T:Trip to Rescue, The
R:reel
C:Tony Upton, 1/2/99
M:4/4
L:1/8
Q:1/4=240
K:A
eAAA A2AB|cedf agfe|f2ed e2dc|dcBA G2 (3Bcd|
eAAA A2AB|cedf agfe|f2ed e2dc|[1 AcdB A3c:|[2 dcBA G2AB||
cAca cAca|cABA Bcde|dBde dBcB|d2dc B2cd|
cAca cAca|cABA Bcde|f2ed e2dc|[1 BAGF E3B:|[2 BAFG A4||
